packages/icons/src/gcs-ci-step.svg

<svg fill="none" viewBox="0 0 41 41" xmlns="http://www.w3.org/2000/svg" xmlns:xlink="http://www.w3.org/1999/xlink"><clipPath id="a"><path d="m.661621.967606h40v40h-40z"/></clipPath><g clip-path="url(#a)" clip-rule="evenodd" fill-rule="evenodd"><path d="m31.9625 4.83149 8.2188 14.29381c.3148.5528.4803 1.178.4803 1.8141s-.1655 1.2613-.4803 1.8141l-8.2188 14.2939c-.3063.5555-.7516 1.0221-1.2922 1.3541-.5407.3319-1.1582.5179-1.7922.5396h-16.4408c-.6341-.0247-1.251-.213-1.7908-.5464-.5399-.3335-.98444-.8008-1.29046-1.3567l-8.21881-14.3751c-.311653-.5442-.475609-1.1604-.475609-1.7875 0-.6272.163956-1.2434.475609-1.7876l8.22193-14.25631c.30884-.54832.75564-1.00637 1.29614-1.32869.5405-.32233 1.1559-.49774 1.7851-.50883h16.4408c.6293.01078 1.2448.18606 1.7853.50842.5406.32236.9874.78057 1.296 1.3291zm-4.8351 11.84091h-12.9501c-.1009-.0026-.1987.0347-.2724.1037s-.1173.1642-.1213.265v2.6876c0 .1002.0398.1964.1107.2673s.1671.1108.2674.1108h12.9657c.1001-.0008.1958-.0409.2665-.1117.0707-.0707.1108-.1664.1116-.2664v-2.6782c0-.1003-.0398-.1965-.1107-.2674s-.1671-.1107-.2674-.1107zm-2.0031 2.5c-.1533 0-.3031-.0455-.4306-.1306-.1274-.0852-.2268-.2062-.2854-.3478-.0587-.1416-.074-.2975-.0441-.4478s.1037-.2884.2121-.3968.2464-.1822.3968-.2121c.1503-.0299.3061-.0146.4478.0441.1416.0586.2626.158.3478.2854.0851.1275.1306.2773.1306.4306 0 .2055-.0817.4027-.227.548-.1454.1453-.3425.227-.548.227zm2.0031 2.6625h-12.9501c-.1009-.0025-.1987.0347-.2724.1037s-.1173.1642-.1213.2651v2.7031c.0047.0976.0465.1897.1167.2576s.1637.1066.2614.108h12.9657c.1001-.0008.1958-.0409.2665-.1116.0707-.0708.1108-.1665.1116-.2665v-2.6938c0-.1003-.0398-.1964-.1107-.2673-.0709-.071-.1671-.1108-.2674-.1108zm-2.0031 2.4875c-.1533 0-.3031-.0454-.4306-.1306-.1274-.0851-.2268-.2062-.2854-.3478-.0587-.1416-.074-.2974-.0441-.4478.0299-.1503.1037-.2884.2121-.3968s.2464-.1822.3968-.2121c.1503-.0299.3061-.0146.4478.0441.1416.0587.2626.158.3478.2854.0851.1275.1306.2773.1306.4306 0 .1018-.0201.2026-.059.2966-.039.094-.096.1795-.168.2514-.072.072-.1574.1291-.2514.168-.0941.039-.1948.059-.2966.059z" fill="#4487fc"/><path d="m13.884 19.9853-.0027.0027 1.847 1.8469h11.3991v-.0125c.1003 0 .1965.0398.2674.1108.0709.0709.1107.167.1107.2673v2.6938c-.0008.1-.0409.1957-.1116.2665-.0708.0707-.1665.1108-.2665.1116h-12.9657c-.0595-.0009-.1173-.0155-.1694-.0421l13.7016 13.7016h1.1688c.6341-.0218 1.2516-.2077 1.7922-.5397.5407-.3319.9859-.7985 1.2922-1.3541l5.7282-9.9626-10.3001-10.3157-.0054.0005c.0086.0072.017.0148.025.0228.0709.0709.1107.1671.1107.2674v2.6782c-.0008.1-.0409.1957-.1116.2664-.0708.0708-.1665.1109-.2665.1117h-12.9657c-.1003 0-.1965-.0399-.2674-.1108-.0035-.0035-.0069-.007-.0103-.0107zm11.2402-.8129c-.1532 0-.3031-.0455-.4305-.1306-.1275-.0852-.2268-.2062-.2855-.3478-.0586-.1416-.074-.2975-.0441-.4478s.1038-.2884.2121-.3968c.1084-.1084.2465-.1822.3969-.2121.1503-.0299.3061-.0146.4477.0441.1416.0586.2627.158.3478.2854.0852.1275.1307.2773.1307.4306 0 .2055-.0817.4027-.227.548-.1454.1453-.3425.227-.5481.227zm0 5.15c-.1532 0-.3031-.0454-.4305-.1306-.1275-.0851-.2268-.2062-.2855-.3478-.0586-.1416-.074-.2974-.0441-.4478.0299-.1503.1038-.2884.2121-.3968.1084-.1084.2465-.1822.3969-.2121.1503-.0299.3061-.0146.4477.0441s.2627.158.3478.2854c.0852.1275.1307.2773.1307.4306 0 .1018-.0201.2026-.059.2966-.039.094-.0961.1795-.168.2514-.072.072-.1574.1291-.2515.168-.094.039-.1948.059-.2966.059z" fill="#3d7ce3"/></g></svg>

<svg viewBox="0 0 41 41" fill="none" xmlns="http://www.w3.org/2000/svg">
<g clip-path="url(#clip0_2952_318958)">
<path fill-rule="evenodd" clip-rule="evenodd" d="M31.9625 4.83149L40.1813 19.1253C40.4961 19.6781 40.6616 20.3033 40.6616 20.9394C40.6616 21.5755 40.4961 22.2007 40.1813 22.7535L31.9625 37.0474C31.6562 37.6029 31.2109 38.0695 30.6703 38.4015C30.1296 38.7334 29.5121 38.9194 28.8781 38.9411H12.4373C11.8032 38.9164 11.1863 38.7281 10.6465 38.3947C10.1066 38.0612 9.66206 37.5939 9.35604 37.038L1.13723 22.6629C0.825577 22.1187 0.661621 21.5025 0.661621 20.8754C0.661621 20.2482 0.825577 19.632 1.13723 19.0878L9.35916 4.83149C9.668 4.28317 10.1148 3.82512 10.6553 3.5028C11.1958 3.18047 11.8112 3.00506 12.4404 2.99397H28.8812C29.5105 3.00475 30.126 3.18003 30.6665 3.50239C31.2071 3.82475 31.6539 4.28296 31.9625 4.83149ZM27.1274 16.6724H14.1773C14.0764 16.6698 13.9786 16.7071 13.9049 16.7761C13.8312 16.8451 13.7876 16.9403 13.7836 17.0411V19.7287C13.7836 19.8289 13.8234 19.9251 13.8943 19.996C13.9652 20.0669 14.0614 20.1068 14.1617 20.1068H27.1274C27.2275 20.106 27.3232 20.0659 27.3939 19.9951C27.4646 19.9244 27.5047 19.8287 27.5055 19.7287V17.0505C27.5055 16.9502 27.4657 16.854 27.3948 16.7831C27.3239 16.7122 27.2277 16.6724 27.1274 16.6724ZM25.1243 19.1724C24.971 19.1724 24.8212 19.1269 24.6937 19.0418C24.5663 18.9566 24.4669 18.8356 24.4083 18.694C24.3496 18.5524 24.3343 18.3965 24.3642 18.2462C24.3941 18.0959 24.4679 17.9578 24.5763 17.8494C24.6847 17.741 24.8227 17.6672 24.9731 17.6373C25.1234 17.6074 25.2792 17.6227 25.4209 17.6814C25.5625 17.74 25.6835 17.8394 25.7687 17.9668C25.8538 18.0943 25.8993 18.2441 25.8993 18.3974C25.8993 18.6029 25.8176 18.8001 25.6723 18.9454C25.5269 19.0907 25.3298 19.1724 25.1243 19.1724ZM27.1274 21.8349H14.1773C14.0764 21.8324 13.9786 21.8696 13.9049 21.9386C13.8312 22.0076 13.7876 22.1028 13.7836 22.2037V24.9068C13.7883 25.0044 13.8301 25.0965 13.9003 25.1644C13.9705 25.2323 14.064 25.271 14.1617 25.2724H27.1274C27.2275 25.2716 27.3232 25.2315 27.3939 25.1608C27.4646 25.09 27.5047 24.9943 27.5055 24.8943V22.2005C27.5055 22.1002 27.4657 22.0041 27.3948 21.9332C27.3239 21.8622 27.2277 21.8224 27.1274 21.8224V21.8349ZM25.1243 24.3224C24.971 24.3224 24.8212 24.277 24.6937 24.1918C24.5663 24.1067 24.4669 23.9856 24.4083 23.844C24.3496 23.7024 24.3343 23.5466 24.3642 23.3962C24.3941 23.2459 24.4679 23.1078 24.5763 22.9994C24.6847 22.891 24.8227 22.8172 24.9731 22.7873C25.1234 22.7574 25.2792 22.7727 25.4209 22.8314C25.5625 22.8901 25.6835 22.9894 25.7687 23.1168C25.8538 23.2443 25.8993 23.3941 25.8993 23.5474C25.8993 23.6492 25.8792 23.75 25.8403 23.844C25.8013 23.938 25.7443 24.0235 25.6723 24.0954C25.6003 24.1674 25.5149 24.2245 25.4209 24.2634C25.3268 24.3024 25.2261 24.3224 25.1243 24.3224Z" fill="#4487FC"/>
<path fill-rule="evenodd" clip-rule="evenodd" d="M13.884 19.9853L13.8813 19.988L15.7283 21.8349H27.1274V21.8224C27.2277 21.8224 27.3239 21.8622 27.3948 21.9332C27.4657 22.0041 27.5055 22.1002 27.5055 22.2005V24.8943C27.5047 24.9943 27.4646 25.09 27.3939 25.1608C27.3231 25.2315 27.2274 25.2716 27.1274 25.2724H14.1617C14.1022 25.2715 14.0444 25.2569 13.9923 25.2303L27.6939 38.9319H28.8627C29.4968 38.9101 30.1143 38.7242 30.6549 38.3922C31.1956 38.0603 31.6408 37.5937 31.9471 37.0381L37.6753 27.0755L27.3752 16.7598L27.3698 16.7603C27.3784 16.7675 27.3868 16.7751 27.3948 16.7831C27.4657 16.854 27.5055 16.9502 27.5055 17.0505V19.7287C27.5047 19.8287 27.4646 19.9244 27.3939 19.9951C27.3231 20.0659 27.2274 20.106 27.1274 20.1068H14.1617C14.0614 20.1068 13.9652 20.0669 13.8943 19.996C13.8908 19.9925 13.8874 19.989 13.884 19.9853ZM25.1242 19.1724C24.971 19.1724 24.8211 19.1269 24.6937 19.0418C24.5662 18.9566 24.4669 18.8356 24.4082 18.694C24.3496 18.5524 24.3342 18.3965 24.3641 18.2462C24.394 18.0959 24.4679 17.9578 24.5762 17.8494C24.6846 17.741 24.8227 17.6672 24.9731 17.6373C25.1234 17.6074 25.2792 17.6227 25.4208 17.6814C25.5624 17.74 25.6835 17.8394 25.7686 17.9668C25.8538 18.0943 25.8993 18.2441 25.8993 18.3974C25.8993 18.6029 25.8176 18.8001 25.6723 18.9454C25.5269 19.0907 25.3298 19.1724 25.1242 19.1724ZM25.1242 24.3224C24.971 24.3224 24.8211 24.277 24.6937 24.1918C24.5662 24.1067 24.4669 23.9856 24.4082 23.844C24.3496 23.7024 24.3342 23.5466 24.3641 23.3962C24.394 23.2459 24.4679 23.1078 24.5762 22.9994C24.6846 22.891 24.8227 22.8172 24.9731 22.7873C25.1234 22.7574 25.2792 22.7727 25.4208 22.8314C25.5624 22.8901 25.6835 22.9894 25.7686 23.1168C25.8538 23.2443 25.8993 23.3941 25.8993 23.5474C25.8993 23.6492 25.8792 23.75 25.8403 23.844C25.8013 23.938 25.7442 24.0235 25.6723 24.0954C25.6003 24.1674 25.5149 24.2245 25.4208 24.2634C25.3268 24.3024 25.226 24.3224 25.1242 24.3224Z" fill="#3D7CE3"/>
</g>
<defs>
<clipPath id="clip0_2952_318958">
<rect width="40" height="40" fill="white" transform="translate(0.661621 0.967606)"/>
</clipPath>
</defs>
</svg>
